svg/fluentui-system-icons/ic_fluent_text_indent_increase_ltr_20_filled.svg

<svg width="20" height="20" viewBox="0 0 20 20" fill="none" xmlns="http://www.w3.org/2000/svg">
<path d="M6 4.75C6 4.33579 6.33579 4 6.75 4H14.25C14.6642 4 15 4.33579 15 4.75C15 5.16421 14.6642 5.5 14.25 5.5H6.75C6.33579 5.5 6 5.16421 6 4.75ZM6.75 9C6.33579 9 6 9.33579 6 9.75C6 10.1642 6.33579 10.5 6.75 10.5H17.25C17.6642 10.5 18 10.1642 18 9.75C18 9.33579 17.6642 9 17.25 9H6.75ZM6.75 14C6.33579 14 6 14.3358 6 14.75C6 15.1642 6.33579 15.5 6.75 15.5H12.25C12.6642 15.5 13 15.1642 13 14.75C13 14.3358 12.6642 14 12.25 14H6.75ZM3.03033 7.71967C2.73744 7.42678 2.26256 7.42678 1.96967 7.71967C1.67678 8.01256 1.67678 8.48744 1.96967 8.78033L2.93934 9.75L1.96967 10.7197C1.67678 11.0126 1.67678 11.4874 1.96967 11.7803C2.26256 12.0732 2.73744 12.0732 3.03033 11.7803L4.53033 10.2803C4.82322 9.98744 4.82322 9.51256 4.53033 9.21967L3.03033 7.71967Z" fill="#212121"/>
</svg>

<svg xmlns="http://www.w3.org/2000/svg" width="20" height="20"><path d="M6 4.75A.75.75 0 0 1 6.75 4h7.5a.75.75 0 0 1 0 1.5h-7.5A.75.75 0 0 1 6 4.75ZM6.75 9a.75.75 0 0 0 0 1.5h10.5a.75.75 0 0 0 0-1.5H6.75Zm0 5a.75.75 0 0 0 0 1.5h5.5a.75.75 0 0 0 0-1.5h-5.5ZM3.03 7.72a.75.75 0 0 0-1.06 1.06l.97.97-.97.97a.75.75 0 1 0 1.06 1.06l1.5-1.5a.75.75 0 0 0 0-1.06l-1.5-1.5Z"/></svg>
